icon_installer/data/icons/scalable/actions/show-arrow1-up-symbolic.svg

<?xml version="1.0" encoding="UTF-8"?>
<svg height="16px" viewBox="0 0 16 16" width="16px" xmlns="http://www.w3.org/2000/svg">
    <path d="m 12 9 h -1 c -0.257812 0 -0.53125 -0.128906 -0.71875 -0.3125 l -1.28125 -1.28125 v 8.59375 h -2 v -8.59375 l -1.28125 1.28125 c -0.191406 0.183594 -0.460938 0.3125 -0.71875 0.3125 h -1 v -1 c 0 -0.308594 0.089844 -0.550781 0.28125 -0.75 l 3.71875 -3.65625 l 3.71875 3.65625 c 0.191406 0.199219 0.28125 0.441406 0.28125 0.75 z m 0 0" fill="#222222"/>
</svg>

<svg xmlns="http://www.w3.org/2000/svg" width="16" height="16"><path fill="#222" d="M12 9h-1a1.08 1.08 0 0 1-.719-.313L9 7.407V16H7V7.406L5.719 8.688C5.527 8.87 5.258 9 5 9H4V8c0-.309.09-.55.281-.75L8 3.594l3.719 3.656c.191.2.281.441.281.75zm0 0"/></svg>
